X:62
T:RVW2/2/62 Jacky Robinson
C:James Punt, East Horndon, Essex, 23 April 1904
L:1/8
Q:1/4=110
M:4/4
I:linebreak $
K:D
"^Allegro (Editorial suggestion  " dd | AAdd AAdd | B2 G2 G2 F2 |$ E2 E2 eedd | c2 A2 A2 d2 | 
w: All the|pe- rils and * dan- gers of the|waves is past, the|ship at Ports- mouth has ar-|rived at last, the|
f2 a2 f2 af |$ (gf)(ed) c2 AA | AABc dcde | f2 d2 d2 ||$ d2 | A2 dd A2 d2 | B2 G2 G2 F2 |$ 
w: sails all furled and the|an- * chors _ cast and the|hap- piest of the crew is Jack- y|Ro- bin- son.|Jack|met with a man and|said "I say, per-|
E2 EE e2 d2 | c2 A2 A2 d2 | f2 a2 ffaf |$ (gf)(ed) c2 A2 | A2 Bc dcde | f2 d2 d2 |] 
w: haps you may know one|Pol- ly Gray. She's|some- where here- a- bouts." The|man * did * say, "I|do not in- deed" to Jack- y|Ro- bin- son.|



